symbolic/24x24/apps/vbam.svg

<svg xmlns="http://www.w3.org/2000/svg" width="24" height="24" version="1">
 <path style="opacity:0.2" d="m 8.99541,5.5003333 c -1.070974,0 -2.0269075,0.336133 -2.6844725,1 l -2.0109375,0 c -1.8282,0 -3.3,1.5328334 -3.3,3.3333335 L 1,15.166667 C 1,16.967166 2.4718,18.5 4.3,18.5 l 2.0109375,0 c 0.657565,0.66385 1.6134985,1 2.6844725,1 l 6.00918,0 c 1.070974,0 2.026907,-0.336133 2.684472,-1 L 19.7,18.5 c 1.8282,0 3.3,-1.532834 3.3,-3.333333 L 23,9.8336668 C 23,8.0331667 21.5282,6.5003333 19.7,6.5003333 l -2.010938,0 c -0.657565,-0.6638505 -1.613498,-1 -2.684472,-1 z"/>
 <path style="fill:#7f4fc8" d="m 8.99541,5.0003373 c -1.070974,0 -2.0269075,0.336133 -2.6844725,1 l -2.0109375,0 c -1.8282,0 -3.3,1.5328334 -3.3,3.3333335 l 0,5.3330002 c 0,1.800499 1.4718,3.333333 3.3,3.333333 l 2.0109375,0 c 0.657565,0.66385 1.6134985,1 2.6844725,1 l 6.00918,0 c 1.070974,0 2.026907,-0.336133 2.684472,-1 l 2.010938,0 c 1.8282,0 3.3,-1.532834 3.3,-3.333333 L 23,9.3336708 C 23,7.5331707 21.5282,6.0003373 19.7,6.0003373 l -2.010938,0 c -0.657565,-0.6638505 -1.613498,-1 -2.684472,-1 z"/>
 <circle style="opacity:0.2" cx="21" cy="11.5" r="1"/>
 <circle style="fill:#ffffff" cx="21" cy="11" r="1"/>
 <circle style="opacity:0.2" cx="12.5" cy="-18" r="1" transform="matrix(0,1,-1,0,0,0)"/>
 <circle style="fill:#ffffff" cx="12" cy="-18" r="1" transform="matrix(0,1,-1,0,0,0)"/>
 <path style="opacity:0.1;fill:#ffffff" d="m 8.995117,4.999996 c -1.070974,0 -2.027005,0.336133 -2.68457,1 l -2.0107423,0 C 2.4716047,5.999996 1,7.532504 1,9.333004 l 0,0.5 C 1,8.032504 2.4716047,6.499996 4.2998047,6.499996 l 2.0107423,0 c 0.657565,-0.663867 1.613596,-1 2.68457,-1 l 6.009766,0 c 1.070974,0 2.027005,0.3361495 2.68457,1 l 2.010742,0 C 21.528395,6.499996 23,8.032504 23,9.833004 l 0,-0.5 c 0,-1.8005 -1.471605,-3.333008 -3.299805,-3.333008 l -2.010742,0 c -0.657565,-0.6638505 -1.613596,-1 -2.68457,-1 l -6.009766,0 z"/>
 <rect style="fill:#7b92ed" width="8" height="8" x="8" y="8"/>
 <circle style="opacity:0.2" cx="8" cy="-20.5" r=".5" transform="matrix(0,1,-1,0,0,0)"/>
 <circle style="fill:#52ff41" cx="7.5" cy="-20.5" r=".5" transform="matrix(0,1,-1,0,0,0)"/>
 <path style="opacity:0.2" d="m 3,10.500004 0,1 -1,0 0,2 1,0 0,1 2,0 0,-1 1,0 0,-2 -1,0 0,-1 -2,0 z"/>
 <path style="fill:#ffffff" d="m 3,10.000004 0,1 -1,0 0,2 1,0 0,1 2,0 0,-1 1,0 0,-2 -1,0 0,-1 -2,0 z"/>
</svg>

<svg xmlns="http://www.w3.org/2000/svg" width="24" height="24" version="1"><path style="opacity:.2" d="M8.995 5.5c-1.07 0-2.026.336-2.684 1H4.3C2.472 6.5 1 8.033 1 9.834v5.333c0 1.8 1.472 3.333 3.3 3.333h2.01c.659.664 1.614 1 2.685 1h6.01c1.07 0 2.026-.336 2.684-1H19.7c1.828 0 3.3-1.533 3.3-3.333V9.834c0-1.8-1.472-3.334-3.3-3.334h-2.01c-.659-.664-1.614-1-2.685-1z"/><path style="fill:#7f4fc8" d="M8.995 5c-1.07 0-2.026.336-2.684 1H4.3C2.472 6 1 7.533 1 9.334v5.333C1 16.467 2.472 18 4.3 18h2.01c.659.664 1.614 1 2.685 1h6.01c1.07 0 2.026-.336 2.684-1H19.7c1.828 0 3.3-1.533 3.3-3.333V9.334C23 7.534 21.528 6 19.7 6h-2.01c-.659-.664-1.614-1-2.685-1z"/><circle style="opacity:.2" cx="21" cy="11.5" r="1"/><circle style="fill:#fff" cx="21" cy="11" r="1"/><circle style="opacity:.2" cx="12.5" cy="-18" r="1" transform="rotate(90)"/><circle style="fill:#fff" cx="12" cy="-18" r="1" transform="rotate(90)"/><path style="opacity:.1;fill:#fff" d="M8.995 5c-1.07 0-2.027.336-2.684 1H4.3C2.472 6 1 7.533 1 9.333v.5C1 8.033 2.472 6.5 4.3 6.5h2.01c.658-.664 1.614-1 2.685-1h6.01c1.07 0 2.027.336 2.684 1H19.7c1.828 0 3.3 1.533 3.3 3.333v-.5C23 7.533 21.528 6 19.7 6h-2.01c-.658-.664-1.614-1-2.685-1h-6.01z"/><path style="fill:#7b92ed" d="M8 8h8v8H8z"/><circle style="opacity:.2" cx="8" cy="-20.5" r=".5" transform="rotate(90)"/><circle style="fill:#52ff41" cx="7.5" cy="-20.5" r=".5" transform="rotate(90)"/><path style="opacity:.2" d="M3 10.5v1H2v2h1v1h2v-1h1v-2H5v-1H3z"/><path style="fill:#fff" d="M3 10v1H2v2h1v1h2v-1h1v-2H5v-1H3z"/></svg>
